apps/trade/public/tokens/vovrtx.svg

<svg xmlns="http://www.w3.org/2000/svg" width="24" height="20" viewBox="0 0 24 20" fill="none">
  <path d="M20.8328 5.02061C20.2757 4.08009 18.8777 3.5411 16.7687 3.67608C14.7038 3.80823 12.1563 4.58602 9.63658 6.00389C7.11689 7.42176 5.15203 9.18314 4.00216 10.86C2.8277 12.5727 2.60765 14.0222 3.16478 14.9627C3.7219 15.9032 5.11986 16.4422 7.2289 16.3072C9.29379 16.175 11.8413 15.3972 14.361 13.9794C16.8807 12.5615 18.8456 10.8001 19.9954 9.12328C21.1699 7.41059 21.3899 5.96112 20.8328 5.02061Z" stroke="url(#paint0_linear_21677_7987)" stroke-width="1.16392"/>
  <path d="M16.182 8.84721L16.182 8.84717C15.9251 8.58663 15.6604 8.4804 15.3612 8.4804C15.034 8.4804 14.7613 8.59249 14.5103 8.84699L16.182 8.84721ZM16.182 8.84721L16.1883 8.85348M16.182 8.84721L16.1883 8.85348M16.1883 8.85348C16.3888 9.05151 16.5475 9.40133 16.5475 10.031C16.5475 10.6563 16.3909 11.016 16.185 11.2268M16.1883 8.85348L16.185 11.2268M16.185 11.2268C15.9335 11.4737 15.6638 11.5817 15.3461 11.5817C15.0298 11.5817 14.7612 11.4747 14.5107 11.2302C14.3122 11.0194 14.1597 10.6576 14.1597 10.031C14.1597 9.3969 14.3158 9.04459 14.5102 8.84717L16.185 11.2268ZM6.23551 13.959C6.33293 14.2212 6.58314 14.3951 6.86286 14.3951H9.2012C9.48048 14.3951 9.7304 14.2217 9.82814 13.9601L10.9317 11.0061C11.0231 11.4979 11.1877 11.9597 11.4297 12.387L11.4296 12.3871L11.4365 12.3988C11.8367 13.0729 12.3775 13.6079 13.0527 13.994L13.0527 13.994L13.057 13.9965C13.7486 14.3851 14.5168 14.5739 15.3461 14.5739C16.167 14.5739 16.9299 14.3843 17.62 13.9965C18.307 13.6104 18.8517 13.0732 19.244 12.3929C19.6524 11.6924 19.8472 10.8983 19.8472 10.031C19.8472 9.16582 19.6532 8.37603 19.244 7.68401C18.8531 6.99607 18.3096 6.45356 17.6221 6.06679C16.9401 5.67738 16.1811 5.48815 15.3612 5.48815C14.5319 5.48815 13.7637 5.67701 13.0721 6.0656L13.0721 6.06559L13.0678 6.06806C12.9153 6.15528 12.7696 6.25031 12.631 6.35303C12.6345 6.21279 12.5939 6.07298 12.5118 5.95465C12.3867 5.77443 12.1813 5.66694 11.962 5.66694H9.94042C9.65388 5.66694 9.39913 5.84935 9.30683 6.12063L8.03957 9.84534L6.77231 6.12063C6.68002 5.84935 6.42527 5.66694 6.13873 5.66694H4.11719C3.89804 5.66694 3.69278 5.77422 3.56769 5.95416C3.44259 6.13409 3.41351 6.36386 3.48984 6.56929L6.23551 13.959Z" fill="url(#paint1_radial_21677_7987)" stroke="#1B1B21" stroke-width="1.33851" stroke-linejoin="round"/>
  <defs>
    <linearGradient id="paint0_linear_21677_7987" x1="15.797" y1="13.8255" x2="9.25403" y2="5.57132" gradientUnits="userSpaceOnUse">
      <stop stop-color="#D9C8F0"/>
      <stop offset="1" stop-color="#9279CC" stop-opacity="0"/>
    </linearGradient>
    <radialGradient id="paint1_radial_21677_7987" cx="0" cy="0" r="1" gradientUnits="userSpaceOnUse" gradientTransform="translate(23.3365 1.74579) rotate(153.895) scale(22.7416 73.7103)">
      <stop offset="0.432292" stop-color="#DBC9F8"/>
      <stop offset="1" stop-color="#A29DFB"/>
    </radialGradient>
  </defs>
</svg>

<svg xmlns="http://www.w3.org/2000/svg" width="24" height="20" fill="none">
    <path d="M20.833 5.02c-.557-.94-1.955-1.479-4.064-1.344-2.065.132-4.613.91-7.132 2.328-2.52 1.418-4.485 3.18-5.635 4.856-1.174 1.713-1.394 3.162-.837 4.103.557.94 1.955 1.48 4.064 1.344 2.065-.132 4.612-.91 7.132-2.328 2.52-1.417 4.485-3.179 5.634-4.856 1.175-1.712 1.395-3.162.838-4.102Z" stroke="url(#a)" stroke-width="1.164"/>
    <path d="M16.182 8.847c-.257-.26-.522-.367-.82-.367-.328 0-.6.112-.852.367h1.672Zm0 0 .006.006m-.006-.006.006.006m0 0c.2.199.36.548.36 1.178 0 .625-.157.985-.363 1.196m.003-2.374-.003 2.374m0 0a1.139 1.139 0 0 1-.839.355c-.316 0-.585-.107-.835-.352-.199-.21-.351-.572-.351-1.199 0-.634.156-.986.35-1.184l1.675 2.38Zm-9.95 2.732a.67.67 0 0 0 .628.436H9.2a.67.67 0 0 0 .627-.435l1.104-2.954c.091.492.256.954.498 1.381l.007.012c.4.674.94 1.209 1.616 1.595l.004.002c.692.39 1.46.578 2.29.578.82 0 1.583-.19 2.273-.578a4.248 4.248 0 0 0 1.624-1.603c.408-.7.603-1.495.603-2.362 0-.865-.194-1.655-.603-2.347a4.216 4.216 0 0 0-1.622-1.617 4.49 4.49 0 0 0-2.26-.579c-.83 0-1.598.189-2.29.578l-.004.002a4.41 4.41 0 0 0-.437.285.67.67 0 0 0-.669-.686H9.94a.67.67 0 0 0-.633.454L8.04 9.845 6.772 6.121a.67.67 0 0 0-.633-.454H4.117a.67.67 0 0 0-.627.902l2.746 7.39Z" fill="url(#b)" stroke="#1B1B21" stroke-width="1.339" stroke-linejoin="round"/>
    <defs>
        <radialGradient id="b" cx="0" cy="0" r="1" gradientUnits="userSpaceOnUse" gradientTransform="matrix(-20.42171 10.0067 -32.43382 -66.19105 23.337 1.746)">
            <stop offset=".432" stop-color="#DBC9F8"/>
            <stop offset="1" stop-color="#A29DFB"/>
        </radialGradient>
        <linearGradient id="a" x1="15.797" y1="13.825" x2="9.254" y2="5.571" gradientUnits="userSpaceOnUse">
            <stop stop-color="#D9C8F0"/>
            <stop offset="1" stop-color="#9279CC" stop-opacity="0"/>
        </linearGradient>
    </defs>
</svg>
